X: 10878
T: Droning Old-Aged Woman, The
R: jig
M: 6/8
K: Dmixolydian
G|:cde fde|c3c2 A|cde fde|d3d2 g|
a3 g3|f2f geg|fed cAG|1 A3AAG:|2 A3AcA||
GEG GEG|c3 dcA|GEG GEG|{c}d3d e/f/g|
a3 g3|f2f geg|fed cAG|1 A3AcA:|2 A3AzG||

